X:1
T:Between the Strings
C:Diarmaid Moynihan
S:Padraig O'Neill
Z:robin.beech@mcgill.ca
R:jig
M:6/8
L:1/8
K:G
GAc BGG | deg edB | GBG BGG | cGB AGE |
DEG BGG | deg edB | e2d GAB | AGF G3 :|
B2d edB | d2g edc | B2d edd | cGB AGE |
B2d edg | ae/f/g edB | e2d GAB | AGF G3 :|
